!!! OTL: Literature25
!!! Chapter: 5
!!! Section: I
!!! Page: 349
!!! Mode: 
!!! Encoder: DJB
**kern
*staff1
*I"Piano
=1-
*clefG2
*k[b-]
*F:
*M3/4
4r
4r
4c/
=2
8f/L
8a/J
4.a/
8b-\
=3
8a/L
8g/J
4.g/
8f/
=4
4e/
8e/L
8f/J
8g/L
8a/J
=5
2f/
4c/
=6
8f/L
8a/J
4.a/
8b-\
=7
8a/L
8g/J
4.g/
8f/
=8
4e/
8e/L
8f/J
8g/L
8a/J
=9
2f/
4cc\
=10
!!linebreak:original
8cc\L
8a\J
4.a/
8cc\
=11
8cc/L
8g/J
4.g/
8cc\
=12
8bn\L
8cc\J
4dd\
4ee\
=13
2cc\
4c/
=14
8f/L
8a/J
4.a/
8b-\
=15
8a/L
8g/J
4.g/
8f/
=16
8e/L
8f/J
4g/
4a/
=17
2f/
4r
==
*-
